static/img/kroki/5b2ef0280b648d3b4613971fbcd5cb57.svg

<?xml version="1.0" encoding="us-ascii" standalone="no"?><svg xmlns="http://www.w3.org/2000/svg" xmlns:xlink="http://www.w3.org/1999/xlink" contentStyleType="text/css" height="714px" preserveAspectRatio="none" style="width:299px;height:714px;" version="1.1" viewBox="0 0 299 714" width="299px" zoomAndPan="magnify"><defs/><g><!--class aws_region--><g id="elem_aws_region"><rect codeLine="22" fill="#3D176E" height="74.0859" id="aws_region" rx="2.5" ry="2.5" style="stroke:#000D19;stroke-width:0.5;" width="137" x="95" y="633.84"/><ellipse cx="110" cy="653.7345" fill="#ADD1B2" rx="11" ry="11" style="stroke:#181818;stroke-width:1.0;"/><path d="M112.9688,659.3752 Q112.3906,659.672 111.75,659.8127 Q111.1094,659.9689 110.4063,659.9689 Q107.9063,659.9689 106.5781,658.3283 Q105.2656,656.672 105.2656,653.547 Q105.2656,650.422 106.5781,648.7658 Q107.9063,647.1095 110.4063,647.1095 Q111.1094,647.1095 111.75,647.2658 Q112.4063,647.422 112.9688,647.7189 L112.9688,650.4377 Q112.3438,649.8595 111.75,649.5939 Q111.1563,649.3127 110.5313,649.3127 Q109.1875,649.3127 108.5,650.3908 Q107.8125,651.4533 107.8125,653.547 Q107.8125,655.6408 108.5,656.7189 Q109.1875,657.7814 110.5313,657.7814 Q111.1563,657.7814 111.75,657.5158 Q112.3438,657.2345 112.9688,656.6564 L112.9688,659.3752 Z " fill="#000000"/><text fill="#D9B8FF" font-family="Helvetica" font-size="17" lengthAdjust="spacing" textLength="95" x="129" y="659.6198">aws_region</text><line style="stroke:#000D19;stroke-width:0.5;" x1="96" x2="231" y1="673.6291" y2="673.6291"/><text fill="#D9B8FF" font-family="sans-serif" font-size="14" font-weight="bold" lengthAdjust="spacing" textLength="43" x="106" y="695.6242">ctime</text><text fill="#D9B8FF" font-family="sans-serif" font-size="14" lengthAdjust="spacing" textLength="70" x="149" y="695.6242">: datetime</text></g><!--class aws_resource--><g id="elem_aws_resource"><rect codeLine="25" fill="#3D176E" height="74.0859" id="aws_resource" rx="2.5" ry="2.5" style="stroke:#000D19;stroke-width:0.5;" width="155" x="7" y="438.76"/><ellipse cx="22" cy="458.6545" fill="#ADD1B2" rx="11" ry="11" style="stroke:#181818;stroke-width:1.0;"/><path d="M24.9688,464.2952 Q24.3906,464.592 23.75,464.7327 Q23.1094,464.8889 22.4063,464.8889 Q19.9063,464.8889 18.5781,463.2483 Q17.2656,461.592 17.2656,458.467 Q17.2656,455.342 18.5781,453.6858 Q19.9063,452.0295 22.4063,452.0295 Q23.1094,452.0295 23.75,452.1858 Q24.4063,452.342 24.9688,452.6389 L24.9688,455.3577 Q24.3438,454.7795 23.75,454.5139 Q23.1563,454.2327 22.5313,454.2327 Q21.1875,454.2327 20.5,455.3108 Q19.8125,456.3733 19.8125,458.467 Q19.8125,460.5608 20.5,461.6389 Q21.1875,462.7014 22.5313,462.7014 Q23.1563,462.7014 23.75,462.4358 Q24.3438,462.1545 24.9688,461.5764 L24.9688,464.2952 Z " fill="#000000"/><text fill="#D9B8FF" font-family="Helvetica" font-size="17" lengthAdjust="spacing" textLength="113" x="41" y="464.5398">aws_resource</text><line style="stroke:#000D19;stroke-width:0.5;" x1="8" x2="161" y1="478.5491" y2="478.5491"/><text fill="#D9B8FF" font-family="sans-serif" font-size="14" font-weight="bold" lengthAdjust="spacing" textLength="26" x="18" y="500.5442">arn</text><text fill="#D9B8FF" font-family="sans-serif" font-size="14" lengthAdjust="spacing" textLength="48" x="44" y="500.5442">: string</text></g><!--class region--><g id="elem_region"><rect codeLine="28" fill="#3D176E" height="39.7891" id="region" rx="2.5" ry="2.5" style="stroke:#000D19;stroke-width:0.5;" width="95" x="197" y="455.91"/><ellipse cx="212" cy="475.8045" fill="#ADD1B2" rx="11" ry="11" style="stroke:#181818;stroke-width:1.0;"/><path d="M214.9688,481.4452 Q214.3906,481.742 213.75,481.8827 Q213.1094,482.0389 212.4063,482.0389 Q209.9063,482.0389 208.5781,480.3983 Q207.2656,478.742 207.2656,475.617 Q207.2656,472.492 208.5781,470.8358 Q209.9063,469.1795 212.4063,469.1795 Q213.1094,469.1795 213.75,469.3358 Q214.4063,469.492 214.9688,469.7889 L214.9688,472.5077 Q214.3438,471.9295 213.75,471.6639 Q213.1563,471.3827 212.5313,471.3827 Q211.1875,471.3827 210.5,472.4608 Q209.8125,473.5233 209.8125,475.617 Q209.8125,477.7108 210.5,478.7889 Q211.1875,479.8514 212.5313,479.8514 Q213.1563,479.8514 213.75,479.5858 Q214.3438,479.3045 214.9688,478.7264 L214.9688,481.4452 Z " fill="#000000"/><text fill="#D9B8FF" font-family="Helvetica" font-size="17" lengthAdjust="spacing" textLength="53" x="231" y="481.6898">region</text></g><!--class resource--><g id="elem_resource"><rect codeLine="30" fill="#3D176E" height="310.7578" id="resource" rx="2.5" ry="2.5" style="stroke:#000D19;stroke-width:0.5;" width="227" x="50" y="7"/><ellipse cx="118.75" cy="26.8945" fill="#ADD1B2" rx="11" ry="11" style="stroke:#181818;stroke-width:1.0;"/><path d="M121.7188,32.5352 Q121.1406,32.832 120.5,32.9727 Q119.8594,33.1289 119.1563,33.1289 Q116.6563,33.1289 115.3281,31.4883 Q114.0156,29.832 114.0156,26.707 Q114.0156,23.582 115.3281,21.9258 Q116.6563,20.2695 119.1563,20.2695 Q119.8594,20.2695 120.5,20.4258 Q121.1563,20.582 121.7188,20.8789 L121.7188,23.5977 Q121.0938,23.0195 120.5,22.7539 Q119.9063,22.4727 119.2813,22.4727 Q117.9375,22.4727 117.25,23.5508 Q116.5625,24.6133 116.5625,26.707 Q116.5625,28.8008 117.25,29.8789 Q117.9375,30.9414 119.2813,30.9414 Q119.9063,30.9414 120.5,30.6758 Q121.0938,30.3945 121.7188,29.8164 L121.7188,32.5352 Z " fill="#000000"/><text fill="#D9B8FF" font-family="Helvetica" font-size="17" lengthAdjust="spacing" textLength="71" x="144.25" y="32.7798">resource</text><line style="stroke:#000D19;stroke-width:0.5;" x1="51" x2="276" y1="46.7891" y2="46.7891"/><text fill="#D9B8FF" font-family="sans-serif" font-size="14" font-weight="bold" lengthAdjust="spacing" textLength="29" x="61" y="68.7842">age</text><text fill="#D9B8FF" font-family="sans-serif" font-size="14" lengthAdjust="spacing" textLength="66" x="90" y="68.7842">: duration</text><text fill="#D9B8FF" font-family="sans-serif" font-size="14" font-weight="bold" lengthAdjust="spacing" textLength="43" x="61" y="95.0811">atime</text><text fill="#D9B8FF" font-family="sans-serif" font-size="14" lengthAdjust="spacing" textLength="70" x="104" y="95.0811">: datetime</text><text fill="#D9B8FF" font-family="sans-serif" font-size="14" font-weight="bold" lengthAdjust="spacing" textLength="43" x="61" y="121.3779">ctime</text><text fill="#D9B8FF" font-family="sans-serif" font-size="14" lengthAdjust="spacing" textLength="70" x="104" y="121.3779">: datetime</text><text fill="#D9B8FF" font-family="sans-serif" font-size="14" font-weight="bold" lengthAdjust="spacing" textLength="14" x="61" y="147.6748">id</text><text fill="#D9B8FF" font-family="sans-serif" font-size="14" lengthAdjust="spacing" textLength="48" x="75" y="147.6748">: string</text><text fill="#D9B8FF" font-family="sans-serif" font-size="14" font-weight="bold" lengthAdjust="spacing" textLength="33" x="61" y="173.9717">kind</text><text fill="#D9B8FF" font-family="sans-serif" font-size="14" lengthAdjust="spacing" textLength="48" x="94" y="173.9717">: string</text><text fill="#D9B8FF" font-family="sans-serif" font-size="14" font-weight="bold" lengthAdjust="spacing" textLength="90" x="61" y="200.2686">last_access</text><text fill="#D9B8FF" font-family="sans-serif" font-size="14" lengthAdjust="spacing" textLength="66" x="151" y="200.2686">: duration</text><text fill="#D9B8FF" font-family="sans-serif" font-size="14" font-weight="bold" lengthAdjust="spacing" textLength="90" x="61" y="226.5654">last_update</text><text fill="#D9B8FF" font-family="sans-serif" font-size="14" lengthAdjust="spacing" textLength="66" x="151" y="226.5654">: duration</text><text fill="#D9B8FF" font-family="sans-serif" font-size="14" font-weight="bold" lengthAdjust="spacing" textLength="48" x="61" y="252.8623">mtime</text><text fill="#D9B8FF" font-family="sans-serif" font-size="14" lengthAdjust="spacing" textLength="70" x="109" y="252.8623">: datetime</text><text fill="#D9B8FF" font-family="sans-serif" font-size="14" font-weight="bold" lengthAdjust="spacing" textLength="43" x="61" y="279.1592">name</text><text fill="#D9B8FF" font-family="sans-serif" font-size="14" lengthAdjust="spacing" textLength="48" x="104" y="279.1592">: string</text><text fill="#D9B8FF" font-family="sans-serif" font-size="14" font-weight="bold" lengthAdjust="spacing" textLength="34" x="61" y="305.4561">tags</text><text fill="#D9B8FF" font-family="sans-serif" font-size="14" lengthAdjust="spacing" textLength="171" x="95" y="305.4561">: dictionary[string, string]</text></g><!--reverse link aws_resource to aws_region--><g id="link_aws_resource_aws_region"><path codeLine="42" d="M107.16,532.2 C120.46,564.7 136.9,604.86 148.57,633.4 " fill="none" id="aws_resource-backto-aws_region" style="stroke:#FFAF37;stroke-width:2.0;"/><polygon fill="none" points="100.45,535.28,99.36,514.12,113.41,529.98,100.45,535.28" style="stroke:#FFAF37;stroke-width:2.0;"/></g><!--reverse link region to aws_region--><g id="link_region_aws_region"><path codeLine="43" d="M228.43,515.1 C214.01,549.47 193,599.56 178.82,633.37 " fill="none" id="region-backto-aws_region" style="stroke:#FFAF37;stroke-width:2.0;"/><polygon fill="none" points="222.25,512.76,236.44,497.02,235.16,518.17,222.25,512.76" style="stroke:#FFAF37;stroke-width:2.0;"/></g><!--reverse link resource to aws_resource--><g id="link_resource_aws_resource"><path codeLine="44" d="M119.09,338.45 C109.45,376.45 100.21,412.88 93.71,438.51 " fill="none" id="resource-backto-aws_resource" style="stroke:#FFAF37;stroke-width:2.0;"/><polygon fill="none" points="112.53,336.84,124.23,319.18,126.1,340.29,112.53,336.84" style="stroke:#FFAF37;stroke-width:2.0;"/></g><!--reverse link resource to region--><g id="link_resource_region"><path codeLine="45" d="M209,338.31 C221.38,385.91 233.13,431.08 239.52,455.65 " fill="none" id="resource-backto-region" style="stroke:#FFAF37;stroke-width:2.0;"/><polygon fill="none" points="202.02,340.3,203.76,319.18,215.57,336.77,202.02,340.3" style="stroke:#FFAF37;stroke-width:2.0;"/></g><!--SRC=[XP9DJm8n48Rl-okQSDj80X85Z1SaCNeXHhmPOuPsTcdORJVJhWG__hjR5jVk1t1htlUPUMScNKk13DFCxbYAwGh916OZLGO4APiHwUrS9vfOBueW6esRvhrMzYomW1JP0oOVQ2M79l6obdoZq1XswLbtm3SnwLo9ihqbKAQmK5cFcYTWpCnQaglSeZUCcAucKTGacqrx8p4SNsCBqoIG3iXWC133QHCv6tLoxufOoazaG_ze2ssnDMOhOa-TdD8Htf2jHV_yepC-WH1InUpAqvxBcKWXrVJb6eJUEZg2nFWnnYAXjhiCvwsjS3eHqRWJVZm6StSv1blpJXXBhTXN48RSoXJ3y8O9iEZUmKyDD3edZdiKI3dG53z6nHLMzVeN_9guR9uJs09pIYkmQuWmbC8B2yDYqRfGPDbtuBpu_8s4lPDdhbV3IJjo59HIrTX2N7QKt9K1xLvBx-B0l1Mhrevp-ztlzxt31eURTEWT5QNKzCgANm00]--></g></svg>

<svg xmlns="http://www.w3.org/2000/svg" width="299" height="714" preserveAspectRatio="none" style="width:299px;height:714px"><rect width="137" height="74.086" x="95" y="633.84" fill="#3D176E" rx="2.5" ry="2.5" style="stroke:#000d19;stroke-width:.5"/><circle cx="110" cy="653.735" r="11" fill="#ADD1B2" style="stroke:#181818;stroke-width:1"/><path d="M112.969 659.375q-.578.297-1.219.438-.64.156-1.344.156-2.5 0-3.828-1.64-1.312-1.657-1.312-4.782t1.312-4.781q1.328-1.656 3.828-1.656.703 0 1.344.156.656.156 1.219.453v2.719q-.625-.578-1.219-.844-.594-.281-1.219-.281-1.344 0-2.031 1.078-.688 1.062-.688 3.156 0 2.094.688 3.172.688 1.062 2.031 1.062.625 0 1.219-.265.594-.281 1.219-.86v2.72Z"/><text x="129" y="659.62" fill="#D9B8FF" font-family="Helvetica" font-size="17" textLength="95">aws_region</text><path d="M96 673.629h135" style="stroke:#000d19;stroke-width:.5"/><text x="106" y="695.624" fill="#D9B8FF" font-family="sans-serif" font-size="14" font-weight="bold" textLength="43">ctime</text><text x="149" y="695.624" fill="#D9B8FF" font-family="sans-serif" font-size="14" textLength="70">: datetime</text><rect width="155" height="74.086" x="7" y="438.76" fill="#3D176E" rx="2.5" ry="2.5" style="stroke:#000d19;stroke-width:.5"/><circle cx="22" cy="458.654" r="11" fill="#ADD1B2" style="stroke:#181818;stroke-width:1"/><path d="M24.969 464.295q-.578.297-1.219.438-.64.156-1.344.156-2.5 0-3.828-1.64-1.312-1.657-1.312-4.782t1.312-4.781q1.328-1.656 3.828-1.656.703 0 1.344.156.656.156 1.219.453v2.719q-.625-.579-1.219-.844-.594-.281-1.219-.281-1.343 0-2.031 1.078-.688 1.062-.688 3.156 0 2.094.688 3.172.688 1.062 2.031 1.062.625 0 1.219-.265.594-.281 1.219-.86v2.72Z"/><text x="41" y="464.54" fill="#D9B8FF" font-family="Helvetica" font-size="17" textLength="113">aws_resource</text><path d="M8 478.549h153" style="stroke:#000d19;stroke-width:.5"/><text x="18" y="500.544" fill="#D9B8FF" font-family="sans-serif" font-size="14" font-weight="bold" textLength="26">arn</text><text x="44" y="500.544" fill="#D9B8FF" font-family="sans-serif" font-size="14" textLength="48">: string</text><rect width="95" height="39.789" x="197" y="455.91" fill="#3D176E" rx="2.5" ry="2.5" style="stroke:#000d19;stroke-width:.5"/><circle cx="212" cy="475.805" r="11" fill="#ADD1B2" style="stroke:#181818;stroke-width:1"/><path d="M214.969 481.445q-.578.297-1.219.438-.64.156-1.344.156-2.5 0-3.828-1.64-1.312-1.657-1.312-4.782t1.312-4.781q1.328-1.656 3.828-1.656.703 0 1.344.156.656.156 1.219.453v2.719q-.625-.578-1.219-.844-.594-.281-1.219-.281-1.344 0-2.031 1.078-.688 1.062-.688 3.156 0 2.094.688 3.172.688 1.062 2.031 1.062.625 0 1.219-.265.594-.281 1.219-.86v2.72Z"/><text x="231" y="481.69" fill="#D9B8FF" font-family="Helvetica" font-size="17" textLength="53">region</text><rect width="227" height="310.758" x="50" y="7" fill="#3D176E" rx="2.5" ry="2.5" style="stroke:#000d19;stroke-width:.5"/><circle cx="118.75" cy="26.895" r="11" fill="#ADD1B2" style="stroke:#181818;stroke-width:1"/><path d="M121.719 32.535q-.578.297-1.219.438-.64.156-1.344.156-2.5 0-3.828-1.64-1.312-1.657-1.312-4.782t1.312-4.781q1.328-1.656 3.828-1.656.703 0 1.344.156.656.156 1.219.453v2.719q-.625-.578-1.219-.844-.594-.281-1.219-.281-1.344 0-2.031 1.078-.688 1.062-.688 3.156 0 2.094.688 3.172.688 1.062 2.031 1.062.625 0 1.219-.265.594-.281 1.219-.86v2.72Z"/><text x="144.25" y="32.78" fill="#D9B8FF" font-family="Helvetica" font-size="17" textLength="71">resource</text><path d="M51 46.789h225" style="stroke:#000d19;stroke-width:.5"/><text x="61" y="68.784" fill="#D9B8FF" font-family="sans-serif" font-size="14" font-weight="bold" textLength="29">age</text><text x="90" y="68.784" fill="#D9B8FF" font-family="sans-serif" font-size="14" textLength="66">: duration</text><text x="61" y="95.081" fill="#D9B8FF" font-family="sans-serif" font-size="14" font-weight="bold" textLength="43">atime</text><text x="104" y="95.081" fill="#D9B8FF" font-family="sans-serif" font-size="14" textLength="70">: datetime</text><text x="61" y="121.378" fill="#D9B8FF" font-family="sans-serif" font-size="14" font-weight="bold" textLength="43">ctime</text><text x="104" y="121.378" fill="#D9B8FF" font-family="sans-serif" font-size="14" textLength="70">: datetime</text><text x="61" y="147.675" fill="#D9B8FF" font-family="sans-serif" font-size="14" font-weight="bold" textLength="14">id</text><text x="75" y="147.675" fill="#D9B8FF" font-family="sans-serif" font-size="14" textLength="48">: string</text><text x="61" y="173.972" fill="#D9B8FF" font-family="sans-serif" font-size="14" font-weight="bold" textLength="33">kind</text><text x="94" y="173.972" fill="#D9B8FF" font-family="sans-serif" font-size="14" textLength="48">: string</text><text x="61" y="200.269" fill="#D9B8FF" font-family="sans-serif" font-size="14" font-weight="bold" textLength="90">last_access</text><text x="151" y="200.269" fill="#D9B8FF" font-family="sans-serif" font-size="14" textLength="66">: duration</text><text x="61" y="226.565" fill="#D9B8FF" font-family="sans-serif" font-size="14" font-weight="bold" textLength="90">last_update</text><text x="151" y="226.565" fill="#D9B8FF" font-family="sans-serif" font-size="14" textLength="66">: duration</text><text x="61" y="252.862" fill="#D9B8FF" font-family="sans-serif" font-size="14" font-weight="bold" textLength="48">mtime</text><text x="109" y="252.862" fill="#D9B8FF" font-family="sans-serif" font-size="14" textLength="70">: datetime</text><text x="61" y="279.159" fill="#D9B8FF" font-family="sans-serif" font-size="14" font-weight="bold" textLength="43">name</text><text x="104" y="279.159" fill="#D9B8FF" font-family="sans-serif" font-size="14" textLength="48">: string</text><text x="61" y="305.456" fill="#D9B8FF" font-family="sans-serif" font-size="14" font-weight="bold" textLength="34">tags</text><text x="95" y="305.456" fill="#D9B8FF" font-family="sans-serif" font-size="14" textLength="171">: dictionary[string, string]</text><g fill="none"><path d="M107.16 532.2c13.3 32.5 29.74 72.66 41.41 101.2" style="stroke:#ffaf37;stroke-width:2"/><path d="m100.45 535.28-1.09-21.16 14.05 15.86-12.96 5.3z" style="stroke:#ffaf37;stroke-width:2"/></g><g fill="none"><path d="M228.43 515.1c-14.42 34.37-35.43 84.46-49.61 118.27" style="stroke:#ffaf37;stroke-width:2"/><path d="m222.25 512.76 14.19-15.74-1.28 21.15-12.91-5.41z" style="stroke:#ffaf37;stroke-width:2"/></g><g fill="none"><path d="M119.09 338.45c-9.64 38-18.88 74.43-25.38 100.06" style="stroke:#ffaf37;stroke-width:2"/><path d="m112.53 336.84 11.7-17.66 1.87 21.11-13.57-3.45z" style="stroke:#ffaf37;stroke-width:2"/></g><path fill="none" d="m209 338.31 30.52 117.34m-37.5-115.35 1.74-21.12 11.81 17.59-13.55 3.53z" style="stroke:#ffaf37;stroke-width:2"/></svg>
